X: 8348
T: Counsellor Dillon
R: jig
M: 6/8
K: Fmajor
dfd cdc|AFF {AGA}G2 G|GAc d2 e|f/g/af e/f/ge|fed cAF|FAF {B}c2 A:|
|:dgg gag|abc' {a}bag|a/b/c'a {g}f2 d|cAF cAF|fed cAF|FAF {B}c2 A:|

